icons/fastlane.svg

<!--
  - The MIT License (MIT)
  -
  - Copyright (c) 2015-2024 Elior "Mallowigi" Boukhobza
  -
  - Permission is hereby granted, free of charge, to any person obtaining a copy
  - of this software and associated documentation files (the "Software"), to deal
  - in the Software without restriction, including without limitation the rights
  - to use, copy, modify, merge, publish, distribute, sublicense, and/or sell
  - copies of the Software, and to permit persons to whom the Software is
  - furnished to do so, subject to the following conditions:
  -
  - The above copyright notice and this permission notice shall be included in all
  - copies or substantial portions of the Software.
  -
  - THE SOFTWARE IS PROVIDED "AS IS", WITHOUT WARRANTY OF ANY KIND, EXPRESS OR
  - IMPLIED, INCLUDING BUT NOT LIMITED TO THE WARRANTIES OF MERCHANTABILITY,
  - FITNESS FOR A PARTICULAR PURPOSE AND NONINFRINGEMENT. IN NO EVENT SHALL THE
  - AUTHORS OR COPYRIGHT HOLDERS BE LIABLE FOR ANY CLAIM, DAMAGES OR OTHER
  - LIABILITY, WHETHER IN AN ACTION OF CONTRACT, TORT OR OTHERWISE, ARISING FROM,
  - OUT OF OR IN CONNECTION WITH THE SOFTWARE OR THE USE OR OTHER DEALINGS IN THE
  - SOFTWARE.
  -
  -->

<svg  width="16px" height="16px" viewBox="0 0 256 248" version="1.1" xmlns="http://www.w3.org/2000/svg"
     preserveAspectRatio="xMidYMid">
  <g fill="#00BCD4" data-iconColor="Fastlane">
    <path
        d="M216.4307,65.9669 C205.7297,65.9669 196.0287,70.2219 188.9067,77.1229 L143.7447,44.7839 C144.0267,43.6029 144.1917,42.3769 144.1917,41.1089 C144.1917,32.3679 137.1057,25.2809 128.3637,25.2809 C119.6227,25.2809 112.5357,32.3679 112.5357,41.1089 C112.5357,49.8509 119.6227,56.9369 128.3637,56.9369 C131.4247,56.9369 134.2727,56.0529 136.6947,54.5489 L191.9787,94.7809 C196.2887,85.7909 205.7947,78.7909 216.4307,78.7909 C231.2017,78.7909 243.1767,90.7649 243.1767,105.5359 C243.1767,117.3399 235.5297,127.3579 224.9197,130.9059 L228.5487,143.2149 C244.4747,138.0969 255.9997,123.1629 255.9997,105.5359 C255.9997,83.6829 238.2847,65.9669 216.4307,65.9669"
    ></path>
    <path
        d="M89.5649,27.5294 C86.3339,37.7014 87.4489,48.2094 91.8579,57.0644 L47.4779,90.2304 C46.4399,89.6064 45.3239,89.0794 44.1189,88.6964 C35.8089,86.0564 26.9319,90.6534 24.2929,98.9634 C21.6529,107.2734 26.2499,116.1504 34.5589,118.7894 C42.8689,121.4294 51.7459,116.8334 54.3859,108.5234 C55.3099,105.6134 55.3299,102.6394 54.6309,99.8834 L109.5729,59.4764 C102.3279,52.6644 98.5439,41.5134 101.7549,31.4024 C106.2159,17.3604 121.2159,9.5924 135.2579,14.0534 C146.4789,17.6174 153.6929,27.9124 153.8629,39.0704 L166.6599,39.3374 C166.6039,22.6524 155.8869,7.1854 139.1299,1.8624 C118.3559,-4.7366 96.1639,6.7544 89.5649,27.5294"
    ></path>
    <path
        d="M16.2642,134.4879 C24.8742,140.7709 35.1582,143.0709 44.9082,141.7459 L62.4162,194.0699 C61.5022,194.8469 60.6562,195.7289 59.9172,196.7399 C54.8272,203.7159 56.4032,213.5319 63.4372,218.6639 C70.4712,223.7969 80.2992,222.3019 85.3892,215.3259 C90.4802,208.3499 88.9042,198.5349 81.8702,193.4019 C79.4072,191.6049 76.6012,190.6379 73.7772,190.4169 L52.7182,125.8499 C44.0152,130.4939 32.2902,130.4989 23.7312,124.2539 C11.8462,115.5809 9.1832,98.9949 17.7842,87.2069 C24.6582,77.7869 36.6442,74.2819 47.2472,77.6789 L51.4952,65.7259 C35.7002,60.4589 17.7292,65.6109 7.4652,79.6769 C-5.2598,97.1169 -1.3208,121.6569 16.2642,134.4879"
    ></path>
    <path
        d="M218.8491,195.9796 C215.5891,185.8896 208.6001,178.0436 199.8901,173.4406 L216.7861,120.9506 C217.9911,120.8546 219.2041,120.6346 220.4051,120.2466 C228.6911,117.5696 233.2491,108.7166 230.5871,100.4746 C227.9241,92.2306 219.0481,87.7186 210.7621,90.3956 C202.4761,93.0716 197.9171,101.9246 200.5801,110.1676 C201.5131,113.0536 203.2181,115.4686 205.3811,117.2916 L184.0871,181.7456 C193.9221,183.0566 203.4531,189.8766 206.6931,199.9066 C211.1931,213.8356 203.4901,228.7946 189.4891,233.3176 C178.3001,236.9326 166.4741,232.7896 159.8791,223.8706 L149.3161,231.0626 C159.0191,244.5126 176.6871,250.8086 193.3951,245.4106 C214.1101,238.7186 225.5061,216.5876 218.8491,195.9796"
    ></path>
    <path
        d="M96.2729,238.3204 C104.8569,232.0394 110.1429,222.9324 111.8059,213.2154 L167.0179,212.6524 C167.4859,213.7644 168.0729,214.8454 168.8169,215.8624 C173.9479,222.8754 183.7919,224.4004 190.8049,219.2704 C197.8179,214.1394 199.3429,204.2954 194.2129,197.2824 C189.0819,190.2694 179.2379,188.7434 172.2249,193.8744 C169.7699,195.6714 168.0029,198.0504 166.9429,200.6794 L98.9769,200.8524 C100.7959,210.5944 97.2789,221.7894 88.7459,228.0324 C76.8959,236.7024 60.2609,234.1244 51.5909,222.2744 C44.6629,212.8044 44.9179,200.2794 51.3459,191.2054 L41.2099,183.4604 C31.4379,196.9134 30.9579,215.6594 41.3029,229.8004 C54.1299,247.3334 78.7409,251.1474 96.2729,238.3204"
    ></path>
  </g>
</svg>

<svg xmlns="http://www.w3.org/2000/svg" preserveAspectRatio="xMidYMid" viewBox="0 0 256 248"><g fill="#00bcd4" data-iconColor="Fastlane"><path d="M216.43 65.967c-10.7 0-20.401 4.255-27.523 11.156l-45.162-32.34c.282-1.18.447-2.406.447-3.674 0-8.741-7.086-15.828-15.828-15.828s-15.828 7.087-15.828 15.828c0 8.742 7.087 15.828 15.828 15.828 3.06 0 5.909-.884 8.33-2.388L191.98 94.78c4.31-8.99 13.816-15.99 24.452-15.99 14.77 0 26.746 11.974 26.746 26.745 0 11.804-7.647 21.822-18.257 25.37l3.629 12.309c15.926-5.118 27.45-20.052 27.45-37.68 0-21.852-17.714-39.568-39.568-39.568"/><path d="M89.565 27.53c-3.231 10.171-2.116 20.68 2.293 29.534L47.478 90.23a15.8 15.8 0 0 0-3.36-1.534c-8.31-2.64-17.186 1.957-19.825 10.267-2.64 8.31 1.957 17.187 10.266 19.826 8.31 2.64 17.187-1.956 19.827-10.266a15.7 15.7 0 0 0 .245-8.64l54.942-40.407c-7.245-6.812-11.03-17.963-7.818-28.074 4.46-14.042 19.46-21.81 33.503-17.349 11.22 3.564 18.435 13.86 18.605 25.017l12.797.267c-.056-16.685-10.773-32.152-27.53-37.475-20.774-6.599-42.966 4.892-49.565 25.667"/><path d="M16.264 134.488a39.44 39.44 0 0 0 28.644 7.258l17.508 52.324a15.6 15.6 0 0 0-2.499 2.67c-5.09 6.976-3.514 16.792 3.52 21.924 7.034 5.133 16.862 3.638 21.952-3.338s3.515-16.791-3.519-21.924a15.76 15.76 0 0 0-8.093-2.985L52.718 125.85c-8.703 4.644-20.428 4.649-28.987-1.596-11.885-8.673-14.548-25.26-5.947-37.047 6.874-9.42 18.86-12.925 29.463-9.528l4.248-11.953C35.7 60.459 17.73 65.61 7.465 79.676c-12.725 17.44-8.786 41.98 8.8 54.812M218.85 195.98c-3.26-10.09-10.25-17.936-18.96-22.54l16.896-52.49a15.8 15.8 0 0 0 3.62-.703c8.285-2.677 12.843-11.53 10.181-19.772-2.663-8.244-11.539-12.756-19.825-10.08s-12.845 11.53-10.182 19.773a15.54 15.54 0 0 0 4.801 7.124l-21.294 64.454c9.835 1.31 19.366 8.13 22.606 18.16 4.5 13.93-3.203 28.889-17.204 33.412-11.189 3.615-23.015-.528-29.61-9.447l-10.563 7.192c9.703 13.45 27.371 19.746 44.08 14.348 20.714-6.692 32.11-28.823 25.453-49.431"/><path d="M96.273 238.32c8.584-6.28 13.87-15.388 15.533-25.105l55.212-.563a15.8 15.8 0 0 0 1.799 3.21c5.13 7.013 14.975 8.538 21.988 3.408s8.538-14.975 3.408-21.988-14.975-8.539-21.988-3.408a15.64 15.64 0 0 0-5.282 6.805l-67.966.173c1.819 9.742-1.698 20.937-10.231 27.18-11.85 8.67-28.485 6.092-37.155-5.758-6.928-9.47-6.673-21.995-.245-31.069L41.21 183.46c-9.772 13.453-10.252 32.2.093 46.34 12.827 17.533 37.438 21.347 54.97 8.52"/></g></svg>
